!!!OTL: Kaisari nokkur maetur mann
!!!ARE: Europa, Island
!!!SCT: L0031B
!!!YEM: Copyright 1995, estate of Helmut Schaffrath.
**kern
*ICvox
*Ivox
*M6/8
*k[]
*a:
{8.a
16b
8ccn
8.b
16a
8g#
=1
8.a
16b
8ccn
4b
8r}
=2
{4b
8b
4ccn
8dd
=3
4.ee
4dd
8r}
=4
{4ccn
8ccn
4ccn
8dd
=5
4ee
8ee
4.dd}
=6
{4dd
8ccn
4b
8a
=7
8.b
16ccn
8b
4a
8r}
=8
{4ccn
8ccn
4a
8a
=9
4a
8b
4ccn
8dd
=10
[4.dd
4dd]
8ccn
=11
4b
8r
4.r}
==
!!!AGN: Lied
!! Island
!!!ONB: ESAC (Essen Associative Code) Database: ERK5
!!!AMT: compound duple
!!!AIN: vox
!!!EED: Helmut Schaffrath
!!!EEV: 1.0
*-
